X:7620
T:Polska
D:Filarfolket Live
R:Polska
O:Norway
M:3/4
D:Filarfolket Live
C:e. Hans W. Brimi
K:Gm
G>B B<A A>G | (3AcA A<B B>A | \
G>A (3BGB (3A^FA | G>B B<A A>G | \
A>A c<d d>B |
G>A (3BGB (3AG^F | ^F<G G4 ::\
d2 cA B>c | d>e (3fdf (3ece |
d2 cA B>d | (3cde d>c (3ABB | \
A2 a2 g>f | d>f (3egf d>d |\
c>A (3BGB (3AG^F | ^F<G G4:|
